assets/icons/24px/outline/arrow-circle-bckwards-thirty-24px.svg

<svg width="24" height="24" viewBox="0 0 24 24" fill="none" xmlns="http://www.w3.org/2000/svg">
<path d="M4.12222 13.2857C4.12222 17.5462 7.08172 21 11.5 21C15.9183 21 19.5 17.9415 19.5 13.2857C19.5 8.62985 15.9183 5.57136 11.5 5.57136L4.5 5.57137M4.5 5.57137L7.16665 3M4.5 5.57137L7.16665 8.14288" stroke="white" stroke-width="2" stroke-linecap="round" stroke-linejoin="round"/>
<path d="M9.5 13.5C10.1721 13.4298 11 13 11 12C11 10.5 9 10.5 8.5 11.5M9.5 13.5C9.22514 13.5287 9.0315 13.5158 9.0315 13.5158C9.0315 13.5158 9.22514 13.486 9.5 13.5ZM9.5 13.5C10.1721 13.5343 11 13.8277 11 15C11 16.5 9.5 17 8.5 16M13 13.5C13 11.1893 13.5 10.5 14.5 10.5C15.5 10.5 16 11.3107 16 13.5C16 15.6893 15.5 16.5 14.5 16.5C13.5 16.5 13 15.8107 13 13.5Z" stroke="white" stroke-linecap="round" stroke-linejoin="round"/>
</svg>

<svg width="24" height="24" fill="none" xmlns="http://www.w3.org/2000/svg"><path d="M4.122 13.286c0 4.26 2.96 7.714 7.378 7.714s8-3.058 8-7.714c0-4.656-3.582-7.715-8-7.715h-7m0 0L7.167 3M4.5 5.571l2.667 2.572" stroke="#fff" stroke-width="2" stroke-linecap="round" stroke-linejoin="round"/><path d="M9.5 13.5c.672-.07 1.5-.5 1.5-1.5 0-1.5-2-1.5-2.5-.5m1 2c-.275.029-.469.016-.469.016s.194-.03.469-.016zm0 0c.672.034 1.5.328 1.5 1.5 0 1.5-1.5 2-2.5 1m4.5-2.5c0-2.31.5-3 1.5-3s1.5.81 1.5 3-.5 3-1.5 3-1.5-.69-1.5-3z" stroke="#fff" stroke-linecap="round" stroke-linejoin="round"/></svg>
